packages/kaspersky-hexa-ui-icons/src/iconsSVGs/16x12/FlagFj.svg

<svg width="16" height="12" viewBox="0 0 16 12" fill="none" xmlns="http://www.w3.org/2000/svg">
<g clip-path="url(#clip0_41813_2120)">
<rect width="16" height="12" rx="2" fill="white"/>
<mask id="mask0_41813_2120" style="mask-type:luminance" maskUnits="userSpaceOnUse" x="0" y="0" width="16" height="12">
<rect width="16" height="12" rx="2" fill="white"/>
</mask>
<g mask="url(#mask0_41813_2120)">
<rect width="16" height="12" fill="#79CFF6"/>
<rect width="6.85714" height="5.6" fill="#042C90"/>
<mask id="mask1_41813_2120" style="mask-type:alpha" maskUnits="userSpaceOnUse" x="0" y="0" width="7" height="6">
<rect width="6.85714" height="5.6" fill="#042C90"/>
</mask>
<g mask="url(#mask1_41813_2120)">
<mask id="path-6-outside-1_41813_2120" maskUnits="userSpaceOnUse" x="-2.14685" y="-1.08127" width="10" height="8" fill="black">
<rect fill="white" x="-2.14685" y="-1.08127" width="10" height="8"/>
<path fill-rule="evenodd" clip-rule="evenodd" d="M2.64218 2.42886L-0.146851 -0.0812683H0.251583L3.04062 2.01051H3.83748L7.02495 -0.0812683V0.17042C7.02495 0.275339 6.97555 0.374135 6.89162 0.437087L4.23592 2.42886V3.26557L6.76238 5.53939C6.85472 5.6225 6.79593 5.7757 6.6717 5.7757C6.64237 5.7757 6.61383 5.76619 6.59037 5.74859L3.83748 3.68393H3.04062L-0.146851 5.7757V5.35735L2.64218 3.26557V2.42886Z"/>
</mask>
<path fill-rule="evenodd" clip-rule="evenodd" d="M2.64218 2.42886L-0.146851 -0.0812683H0.251583L3.04062 2.01051H3.83748L7.02495 -0.0812683V0.17042C7.02495 0.275339 6.97555 0.374135 6.89162 0.437087L4.23592 2.42886V3.26557L6.76238 5.53939C6.85472 5.6225 6.79593 5.7757 6.6717 5.7757C6.64237 5.7757 6.61383 5.76619 6.59037 5.74859L3.83748 3.68393H3.04062L-0.146851 5.7757V5.35735L2.64218 3.26557V2.42886Z" fill="#FF2E3B"/>
<path fill-rule="evenodd" clip-rule="evenodd" d="M2.64218 2.42886L-0.146851 -0.0812683H0.251583L3.04062 2.01051H3.83748L7.02495 -0.0812683V0.17042C7.02495 0.275339 6.97555 0.374135 6.89162 0.437087L4.23592 2.42886V3.26557L6.76238 5.53939C6.85472 5.6225 6.79593 5.7757 6.6717 5.7757C6.64237 5.7757 6.61383 5.76619 6.59037 5.74859L3.83748 3.68393H3.04062L-0.146851 5.7757V5.35735L2.64218 3.26557V2.42886Z" stroke="white" stroke-width="0.8" mask="url(#path-6-outside-1_41813_2120)"/>
<path fill-rule="evenodd" clip-rule="evenodd" d="M-1.04602 2.04546V3.65061H2.67512V5.79999C2.67512 5.96567 2.80943 6.09999 2.97512 6.09999H3.90384C4.06952 6.09999 4.20384 5.96567 4.20384 5.79999V3.65061H7.05761C7.22329 3.65061 7.3576 3.5163 7.3576 3.35061V2.34546C7.3576 2.17978 7.22329 2.04546 7.05761 2.04546H4.20384V-1.00687H2.67512V2.04546H-1.04602Z" fill="white"/>
<path fill-rule="evenodd" clip-rule="evenodd" d="M-0.146851 2.42886H3.04062V2.01051V-0.0812683H3.83748V2.01051V2.42886H7.02495V3.26557H3.83748V3.68393V5.7757H3.04062V3.68393V3.26557H-0.146851V2.42886Z" fill="url(#paint0_linear_41813_2120)"/>
</g>
</g>
<g clip-path="url(#clip1_41813_2120)">
<path fill-rule="evenodd" clip-rule="evenodd" d="M9.90479 6.00001C9.90479 4.80001 9.90479 3.20001 9.90479 3.20001H13.7143C13.7143 3.20001 13.7143 4.80001 13.7143 6.00001C13.7143 8.00001 11.8095 8.80001 11.8095 8.80001C11.8095 8.80001 9.90479 8.00001 9.90479 6.00001Z" fill="white"/>
<mask id="mask2_41813_2120" style="mask-type:luminance" maskUnits="userSpaceOnUse" x="9" y="3" width="5" height="6">
<path fill-rule="evenodd" clip-rule="evenodd" d="M9.90479 6.00001C9.90479 4.80001 9.90479 3.20001 9.90479 3.20001H13.7143C13.7143 3.20001 13.7143 4.80001 13.7143 6.00001C13.7143 8.00001 11.8095 8.80001 11.8095 8.80001C11.8095 8.80001 9.90479 8.00001 9.90479 6.00001Z" fill="white"/>
</mask>
<g mask="url(#mask2_41813_2120)">
<path d="M10.6671 4.40021C10.8772 4.40047 11.0478 4.57905 11.048 4.79962C11.048 5.02037 10.8773 5.19975 10.6671 5.20001C10.4567 5.20001 10.2853 5.02054 10.2853 4.79962C10.2855 4.57889 10.4568 4.40021 10.6671 4.40021ZM12.9523 4.40021C13.1625 4.40021 13.3329 4.57889 13.3331 4.79962C13.3331 5.02054 13.1627 5.20001 12.9523 5.20001C12.7419 5.19996 12.5714 5.0205 12.5714 4.79962C12.5716 4.57892 12.742 4.40026 12.9523 4.40021Z" fill="#2A915C"/>
<path fill-rule="evenodd" clip-rule="evenodd" d="M9.90479 3.20001H13.7143V4.00001H12.1905V5.60001H13.7143V6.40001H12.1905V8.80001H11.4286V6.40001H9.90479V5.60001H11.4286V4.00001H9.90479V3.20001Z" fill="#EB1D43"/>
</g>
</g>
</g>
<defs>
<linearGradient id="paint0_linear_41813_2120" x1="-0.146851" y1="-0.0812683" x2="-0.146851" y2="5.7757" gradientUnits="userSpaceOnUse">
<stop stop-color="#FF2E3B"/>
<stop offset="1" stop-color="#FC0D1B"/>
</linearGradient>
<clipPath id="clip0_41813_2120">
<rect width="16" height="12" fill="white"/>
</clipPath>
<clipPath id="clip1_41813_2120">
<rect width="4" height="6" fill="white" transform="translate(9.90479 3.20001)"/>
</clipPath>
</defs>
</svg>

<svg xmlns="http://www.w3.org/2000/svg" width="16" height="12" fill="none" viewBox="0 0 16 12"><g clip-path="url(#a)"><rect width="16" height="12" fill="#fff" rx="2"/><mask id="b" width="16" height="12" x="0" y="0" maskUnits="userSpaceOnUse" style="mask-type:luminance"><rect width="16" height="12" fill="#fff" rx="2"/></mask><g mask="url(#b)"><path fill="#79cff6" d="M0 0h16v12H0z"/><path fill="#042c90" d="M0 0h6.8571v5.6H0z"/><mask id="c" width="7" height="6" x="0" y="0" maskUnits="userSpaceOnUse" style="mask-type:alpha"><path fill="#042c90" d="M0 0h6.8571v5.6H0z"/></mask><g mask="url(#c)"><mask id="d" width="10" height="8" x="-2" y="-1" fill="#000" maskUnits="userSpaceOnUse"><path fill="#fff" d="M-2.1469-1.0813h10v8h-10z"/><path fill-rule="evenodd" d="M2.6422 2.4289-.1468-.0813h.3984l2.789 2.0918h.7969L7.0249-.0813v.2517a.333.333 0 0 1-.1333.2667L4.236 2.4289v.8367l2.5265 2.2738c.0923.0831.0335.2363-.0907.2363a.136.136 0 0 1-.0813-.0271l-2.753-2.0647h-.7968L-.1469 5.7757v-.4183l2.789-2.0918z" clip-rule="evenodd"/></mask><path fill="#ff2e3b" fill-rule="evenodd" d="M2.6422 2.4289-.1468-.0813h.3984l2.789 2.0918h.7969L7.0249-.0813v.2517a.333.333 0 0 1-.1333.2667L4.236 2.4289v.8367l2.5265 2.2738c.0923.0831.0335.2363-.0907.2363a.136.136 0 0 1-.0813-.0271l-2.753-2.0647h-.7968L-.1469 5.7757v-.4183l2.789-2.0918z" clip-rule="evenodd"/><path stroke="#fff" d="M2.6422 2.4289-.1468-.0813h.3984l2.789 2.0918h.7969L7.0249-.0813v.2517a.333.333 0 0 1-.1333.2667L4.236 2.4289v.8367l2.5265 2.2738c.0923.0831.0335.2363-.0907.2363a.136.136 0 0 1-.0813-.0271l-2.753-2.0647h-.7968L-.1469 5.7757v-.4183l2.789-2.0918z" clip-rule="evenodd" mask="url(#d)"/><path fill="#fff" fill-rule="evenodd" d="M-1.046 2.0455v1.6051h3.721V5.8a.3.3 0 0 0 .3.3h.9287a.3.3 0 0 0 .3-.3V3.6506h2.8538a.3.3 0 0 0 .3-.3V2.3455a.3.3 0 0 0-.3-.3H4.2038V-1.007H2.6751v3.0524z" clip-rule="evenodd"/><path fill="url(#e)" fill-rule="evenodd" d="M-.1469 2.4289h3.1875V-.0813h.7969V2.429h3.1874v.8367H3.8376v2.5101h-.7969V3.2656H-.1469z" clip-rule="evenodd"/></g></g><g clip-path="url(#f)"><path fill="#fff" fill-rule="evenodd" d="M9.9048 6V3.2h3.8095V6c0 2-1.9048 2.8-1.9048 2.8S9.9048 8 9.9048 6" clip-rule="evenodd"/><mask id="g" width="5" height="6" x="9" y="3" maskUnits="userSpaceOnUse" style="mask-type:luminance"><path fill="#fff" fill-rule="evenodd" d="M9.9048 6V3.2h3.8095V6c0 2-1.9048 2.8-1.9048 2.8S9.9048 8 9.9048 6" clip-rule="evenodd"/></mask><g mask="url(#g)"><path fill="#2a915c" d="M10.6671 4.4002c.2101.0003.3807.1788.3809.3994 0 .2208-.1707.4002-.3809.4004-.2104 0-.3818-.1795-.3818-.4004.0002-.2207.1715-.3994.3818-.3994m2.2852 0c.2102 0 .3806.1787.3808.3994 0 .221-.1704.4004-.3808.4004s-.3809-.1795-.3809-.4004c.0002-.2207.1706-.3993.3809-.3994"/><path fill="#eb1d43" fill-rule="evenodd" d="M9.9048 3.2h3.8095V4h-1.5238v1.6h1.5238v.8h-1.5238v2.4h-.7619V6.4H9.9048v-.8h1.5238V4H9.9048z" clip-rule="evenodd"/></g></g></g><defs><clipPath id="a"><path fill="#fff" d="M0 0h16v12H0z"/></clipPath><clipPath id="f"><path fill="#fff" d="M9.9048 3.2h4v6h-4z"/></clipPath><linearGradient id="e" x1="0" x2="0" y1="0" y2="6" gradientUnits="userSpaceOnUse"><stop stop-color="#ff2e3b"/><stop offset="1" stop-color="#fc0d1b"/></linearGradient></defs></svg>
